X: 1
T: Sporting Paddy
R: reel
M: 4/4
L: 1/8
K: Gmaj
|: EAAB GABG | EAAB G2ED | EAA2 GABd | edge dBAG |
EAAB GABG | EAAB G2ED | EAA2 GABd | edge d2 ||
ef | geee gede | geee a2ba | gee2 ged2 | efge d2ef |
geee gede | geee a2ga | bgab gabg | efge dBAG :|


Tune 430	Setting 13292

